actions/22x22-dark/amarok_cart_view.svg

<svg viewBox="0 0 22 22" xmlns="http://www.w3.org/2000/svg"><path d="m1.71875 3c-.3845127 0-.59375.1797956-.59375.5390625v.9648437c0 .3476151.208668.4375001.6074219.4375h3.1308593l2.3964844 10.1738278c-.3806287.403286-.5878906.992729-.5878906 1.541016 0 1.206619.9601666 2.318359 2.1875 2.318359 1.158717 0 2.026851-1.087047 2.167969-1.734375h4.667968c.141118.647328.844831 1.759766 2.167969 1.759766 1.205972 0 2.1875-1.045323 2.1875-2.25 0-1.198204-.729651-2.259766-2.175781-2.259766-.601367 0-1.315053.323098-1.646484.808594h-5.734375c-.416232-.647328-.9837671-.848437-1.5585941-.871094l-.0800781-.423828h8.7246092c.657685 0 .787778-.23945.904297-.55664l2.335937-6.9882816c.117167-.3359631.028104-.5385255-.066406-.671875-.2421-.3411417-.739485-.34375-.835937-.34375l-13.1972659-.0019532-.3515625-1.671875c-.0951572-.3942225-.3769476-.7695312-.9433594-.7695312z" fill="#f2f2f2"/></svg>

<svg xmlns="http://www.w3.org/2000/svg" viewBox="0 0 22 22">
  <defs id="defs3051">
    <style type="text/css" id="current-color-scheme">
      .ColorScheme-Text {
        color:#f2f2f2
      }
      </style>
  </defs>
 <path 
     style="fill:currentColor;fill-opacity:1;stroke:none"      
	 class="ColorScheme-Text"
        d="M 1.71875 3 C 1.3342373 3 1.125 3.1797956 1.125 3.5390625 L 1.125 4.5039062 C 1.125 4.8515213 1.333668 4.9414063 1.7324219 4.9414062 L 4.8632812 4.9414062 L 7.2597656 15.115234 C 6.8791369 15.51852 6.671875 16.107963 6.671875 16.65625 C 6.671875 17.862869 7.6320416 18.974609 8.859375 18.974609 C 10.018092 18.974609 10.886226 17.887562 11.027344 17.240234 L 15.695312 17.240234 C 15.83643 17.887562 16.540143 19 17.863281 19 C 19.069253 19 20.050781 17.954677 20.050781 16.75 C 20.050781 15.551796 19.32113 14.490234 17.875 14.490234 C 17.273633 14.490234 16.559947 14.813332 16.228516 15.298828 L 10.494141 15.298828 C 10.077909 14.6515 9.5103739 14.450391 8.9355469 14.427734 L 8.8554688 14.003906 L 17.580078 14.003906 C 18.237763 14.003906 18.367856 13.764456 18.484375 13.447266 L 20.820312 6.4589844 C 20.937479 6.1230213 20.848416 5.9204589 20.753906 5.7871094 C 20.511806 5.4459677 20.014421 5.4433594 19.917969 5.4433594 L 6.7207031 5.4414062 L 6.3691406 3.7695312 C 6.2739834 3.3753087 5.992193 3 5.4257812 3 L 1.71875 3 z "
     />
</svg>
